html/dist/img/svg/insta.svg

<svg width="40" height="40" viewBox="0 0 40 40" fill="none" xmlns="http://www.w3.org/2000/svg">
<path d="M25.2113 9.92456H14.6893C12.0563 9.92456 9.91402 12.0668 9.91402 14.6999V25.3184C9.91402 27.9514 12.0563 30.0937 14.6893 30.0937H25.2113C27.8443 30.0937 29.9866 27.9514 29.9866 25.3184V14.6999C29.9866 12.0668 27.8443 9.92456 25.2113 9.92456ZM19.9704 26.3672C16.4013 26.3672 13.4977 23.4945 13.4977 19.9635C13.4977 16.4325 16.4017 13.5598 19.9704 13.5598C23.5391 13.5598 26.4431 16.4325 26.4431 19.9635C26.4431 23.4945 23.5395 26.3672 19.9704 26.3672ZM26.5582 14.8207C25.7171 14.8207 25.0353 14.1389 25.0353 13.2978C25.0353 12.4566 25.7171 11.7748 26.5582 11.7748C27.3994 11.7748 28.0812 12.4566 28.0812 13.2978C28.0812 14.1389 27.3994 14.8207 26.5582 14.8207Z" fill="#7C7C7D"/>
<path d="M20 0C8.95441 0 0 8.95441 0 20C0 31.0456 8.95441 40 20 40C31.0456 40 40 31.0456 40 20C40 8.95441 31.0456 0 20 0ZM32.3487 25.3184C32.3487 29.2541 29.1467 32.4558 25.2113 32.4558H14.6893C10.7536 32.4558 7.55191 29.2537 7.55191 25.3184V14.6999C7.55191 10.7641 10.754 7.56246 14.6893 7.56246H25.2113C29.1471 7.56246 32.3487 10.7645 32.3487 14.6999V25.3184Z" fill="#7C7C7D"/>
<path d="M19.9704 15.9175C17.7012 15.9175 15.8554 17.7325 15.8554 19.9636C15.8554 22.1947 17.7012 24.0096 19.9704 24.0096C22.2396 24.0096 24.0854 22.1947 24.0854 19.9636C24.0854 17.7325 22.2396 15.9175 19.9704 15.9175Z" fill="#7C7C7D"/>
</svg>

<svg width="40" height="40" viewBox="0 0 40 40" fill="none" xmlns="http://www.w3.org/2000/svg"><path d="M25.211 9.925H14.69A4.78 4.78 0 009.914 14.7v10.618a4.78 4.78 0 004.775 4.776h10.522a4.78 4.78 0 004.776-4.776V14.7a4.78 4.78 0 00-4.776-4.775zm-5.24 16.442c-3.57 0-6.473-2.873-6.473-6.404 0-3.53 2.904-6.403 6.472-6.403 3.57 0 6.473 2.873 6.473 6.403 0 3.531-2.904 6.404-6.473 6.404zm6.587-11.546a1.523 1.523 0 110-3.046 1.523 1.523 0 010 3.046z" fill="#7C7C7D"/><path d="M20 0C8.954 0 0 8.954 0 20s8.954 20 20 20 20-8.954 20-20S31.046 0 20 0zm12.349 25.318a7.146 7.146 0 01-7.138 7.138H14.69c-3.935 0-7.137-3.202-7.137-7.138V14.7c0-3.936 3.202-7.138 7.137-7.138h10.522A7.146 7.146 0 0132.35 14.7v10.618z" fill="#7C7C7D"/><path d="M19.97 15.918c-2.269 0-4.115 1.815-4.115 4.046 0 2.23 1.846 4.046 4.115 4.046 2.27 0 4.115-1.815 4.115-4.046 0-2.231-1.845-4.046-4.115-4.046z" fill="#7C7C7D"/></svg>
